X:6789
T:Happy Reel
R:reel
S:Alan Kelly
H:
N:
D:Fleadh Concert 1990
Z:Adrian Scahill
M:4/4
L:1/8
K:G
GBB2 cABA|GA (3Bcd egdB|AD (3DDD ABcA|BdcA (3Bcd cA|\
G3B AGFA|GdBG ABcA|dgg2 fgag|1 fdcA G3D:|2 fdcA GABc||\
dgg2 fgaf|gdBG DCB,D|C2(3CCC B,CDG|FGAB cABc|\
d2gd fgaf|gdBG DCB,D|CDEC B,DGB|cAFA G4:||
